src/assets/img/icons/dark/icon-technologies-typescript.svg

<svg width="100" height="100" viewBox="0 0 100 100" fill="none" xmlns="http://www.w3.org/2000/svg">
<path d="M34.845 72.8324C34.845 78.7709 34.845 84.7093 34.8451 90.6477C34.8451 91.3481 34.8455 91.3489 35.5264 91.3489C38.1798 91.3493 40.8331 91.3492 43.4864 91.3489C44.1819 91.3489 44.1821 91.3484 44.1821 90.6713C44.1822 78.7663 44.1822 66.8612 44.1822 54.9563C44.1822 54.3658 44.1826 54.3652 44.7842 54.3652C48.7431 54.365 52.7021 54.3655 56.6611 54.3644C57.2109 54.3644 57.2272 54.3491 57.2219 53.7931C57.1988 51.3791 57.1671 48.9651 57.1543 46.5511C57.1523 46.1803 57.0546 46.0386 56.6538 46.0382C52.0218 46.0326 47.3896 45.9923 42.7576 45.9944C36.104 45.9975 29.4504 46.0279 22.7968 46.0467C21.8919 46.0492 21.8801 46.0494 21.8763 46.9468C21.8665 49.2211 21.8679 51.4954 21.8655 53.7698C21.865 54.3629 21.8661 54.3647 22.4687 54.3648C26.3997 54.3654 30.3306 54.365 34.2614 54.3652C34.8441 54.3653 34.8449 54.3661 34.8449 54.9329C34.8451 60.8993 34.845 66.866 34.845 72.8324ZM76.7619 91.8967C77.6998 91.8514 78.6457 91.8671 79.5741 91.7479C81.5292 91.4969 83.4136 90.97 85.191 90.0945C87.976 88.7228 90.1093 86.7113 91.2442 83.7778C92.1266 81.4974 92.277 79.1286 91.9623 76.7067C91.5043 73.1816 89.8919 70.3516 87.0339 68.234C84.5805 66.4163 81.8216 65.1644 79.0636 63.9056C77.4449 63.1669 75.8183 62.4363 74.2493 61.6003C72.5503 60.6951 71.629 59.2757 71.8075 57.2682C71.8916 56.3221 72.2223 55.496 72.9313 54.8503C74.1646 53.727 75.6657 53.6568 77.205 53.8242C78.9074 54.0093 80.168 54.9279 81.1404 56.2955C81.4003 56.661 81.6798 57.0128 81.9589 57.364C82.1071 57.5505 82.273 57.6037 82.5023 57.45C84.6577 56.0051 86.8175 54.5666 88.9799 53.1318C89.2759 52.9355 89.3283 52.7232 89.1177 52.4348C88.729 51.9026 88.3607 51.3549 87.9599 50.832C86.2483 48.5997 84.1 46.9812 81.3785 46.1687C80.1615 45.8055 78.9171 45.628 77.6524 45.6169C76.2665 45.6048 74.8688 45.5264 73.4966 45.6706C71.5849 45.8716 69.7874 46.5294 68.1429 47.5462C65.1107 49.4211 63.2213 52.1053 62.6595 55.6323C62.4763 56.7815 62.5687 57.9767 62.5602 59.1511C62.5484 60.8068 62.9654 62.3578 63.6957 63.8435C65.05 66.5981 67.1953 68.5811 69.8536 69.9843C72.1313 71.1869 74.5054 72.207 76.8368 73.3077C78.2698 73.9842 79.7147 74.6338 81.0067 75.5752C83.005 77.0311 82.9784 79.8332 81.9883 81.2306C81.3111 82.1862 80.3553 82.751 79.2651 83.1094C77.8117 83.5872 76.3183 83.6639 74.8201 83.4329C73.4543 83.2225 72.1414 82.8266 71.0084 81.9817C69.6204 80.9466 68.4667 79.6943 67.5325 78.2383C67.4042 78.0382 67.2904 77.8752 67.0025 78.0435C64.6775 79.4026 62.3479 80.7538 60.0154 82.1001C59.7002 82.282 59.6747 82.4737 59.8503 82.782C61.4542 85.5961 63.5543 87.9035 66.4473 89.4531C69.6755 91.1822 73.1088 91.9748 76.7619 91.8967ZM100 0V100H0V0C0.166554 0.0126369 0.333108 0.0365627 0.499663 0.0365627C33.4998 0.0381634 66.5001 0.0381634 99.5003 0.0365627C99.6669 0.0365627 99.8334 0.0126369 100 0Z" fill="white"/>
</svg>

<svg xmlns="http://www.w3.org/2000/svg" width="100" height="100" fill="none"><path fill="#fff" d="M34.84 72.83c0 5.94 0 11.88 0 17.82 0 .7 0 .7.69.7 2.65 0 5.3 0 7.96 0 .7 0 .7 0 .7-.68 0-11.9 0-23.8 0-35.71 0-.6 0-.6.6-.6 3.95 0 7.91 0 11.87 0 .55 0 .57-.01.56-.57-.02-2.41-.05-4.82-.07-7.24 0-.37-.1-.51-.5-.51-4.63 0-9.26-.05-13.9-.05-6.65 0-13.3.04-19.95.06-.9 0-.92 0-.92.9-.01 2.27-.01 4.55-.01 6.82 0 .6 0 .6.6.6 3.93 0 7.86 0 11.8 0 .57 0 .57 0 .57.56 0 5.97 0 11.94 0 17.9zM76.77 91.9c.94-.05 1.89-.03 2.81-.15 1.96-.25 3.84-.78 5.62-1.66 2.79-1.37 4.92-3.38 6.05-6.31a14.2 14.2 0 00.72-7.07 12.03 12.03 0 00-4.93-8.48c-2.45-1.81-5.2-3.07-7.97-4.32-1.62-.74-3.24-1.47-4.81-2.31-1.7-.9-2.62-2.32-2.44-4.33.08-.95.41-1.77 1.12-2.42 1.23-1.12 2.74-1.2 4.27-1.03 1.7.19 2.97 1.1 3.94 2.48.26.36.54.71.82 1.06.15.2.31.24.54.09 2.16-1.44 4.32-2.88 6.48-4.32.3-.2.35-.4.14-.7-.4-.53-.76-1.08-1.16-1.6a12.77 12.77 0 00-10.3-5.21c-1.4-.02-2.8-.1-4.16.05-1.92.2-3.71.86-5.36 1.88a11.26 11.26 0 00-5.48 8.08c-.18 1.15-.1 2.35-.1 3.52-.01 1.66.4 3.2 1.14 4.7a13.78 13.78 0 006.15 6.13c2.28 1.2 4.66 2.23 6.99 3.33 1.43.67 2.87 1.32 4.17 2.27 2 1.45 1.97 4.25.98 5.65a5.16 5.16 0 01-2.72 1.88 9.46 9.46 0 01-4.45.32 8.33 8.33 0 01-3.81-1.45 14.17 14.17 0 01-3.48-3.74c-.13-.2-.24-.36-.53-.2-2.32 1.36-4.65 2.71-6.98 4.06-.32.18-.35.37-.17.68 1.6 2.82 3.7 5.12 6.6 6.67a20.52 20.52 0 0010.31 2.45zM100 0v100H0V0c.17.01.33.04.5.04 33 0 66 0 99 0 .17 0 .33-.03.5-.04z"/></svg>
